X:7
T: Little Donkey 
K: G 
M: 4/4
L:1/8
"G" BB d4 B2 | "C"cc e4 c2 | "G"BBd4 B2 | "D"A8 | 
"G" BB d4 B2 | "C"cc e4 c2 | "D" dd F4 d2 | g8 | 
"Em" g4 g2 g2 | "Bm" f2 e2 d4 | "C" e2 fe "G"d4 | "C" e2 fe "G" d4 | 
"Em" g4 g2 g2 | "Bm" f2 e2 d4 | "C" e2 fe "G"d4 | "C" e2 fe "G" d4 |]





